docs/.gitbook/assets/icon-airplane-filled-16@dark.svg

<svg width="32" height="32" viewBox="0 0 16 16" fill="none" xmlns="http://www.w3.org/2000/svg">
<rect x="0" y="0" width="16" height="16" fill="#181c1f"/>
<path d="M5.77218 9.06826C5.91601 9.04771 6.04688 9.15365 6.05872 9.29845C6.15849 10.5185 6.36945 11.8386 6.56642 12.9011C6.58378 12.9947 6.54669 13.09 6.47047 13.1472L5.2 14.1C4.81559 14.3883 5.01948 15 5.49999 15L8 15L10.5 15C10.9805 15 11.1844 14.3883 10.8 14.1L9.52953 13.1471C9.45332 13.0899 9.41623 12.9947 9.4336 12.901C9.63056 11.8386 9.84152 10.5184 9.94128 9.29845C9.95312 9.15365 10.084 9.04771 10.2278 9.06826L14.4293 9.66847C14.7305 9.7115 15 9.47777 15 9.1735V8.88824C15 8.49901 14.7741 8.14514 14.4211 7.98123L9.98503 5.92162C9.90611 5.88498 9.85199 5.80992 9.84163 5.72352C9.67181 4.30737 9.40125 2.88361 9.2129 1.97513C9.09394 1.40134 8.58599 1 8 1C7.41401 1 6.90606 1.40134 6.7871 1.97513C6.59875 2.88361 6.32819 4.30737 6.15837 5.72352C6.14801 5.80992 6.0939 5.88498 6.01497 5.92162L1.57889 7.98123C1.22585 8.14514 1 8.49901 1 8.88824V9.1735C1 9.47777 1.26949 9.7115 1.57071 9.66847L5.77218 9.06826Z" fill="#fff"/>
</svg>

<svg xmlns="http://www.w3.org/2000/svg" width="32" height="32" fill="none" viewBox="0 0 16 16"><path fill="#181c1f" d="M0 0h16v16H0z"/><path fill="#fff" d="M5.772 9.068a.253.253 0 0 1 .287.23c.1 1.22.31 2.54.507 3.603a.25.25 0 0 1-.096.246L5.2 14.1a.5.5 0 0 0 .3.9h5a.5.5 0 0 0 .3-.9l-1.27-.953a.25.25 0 0 1-.096-.246c.197-1.062.408-2.383.507-3.603a.253.253 0 0 1 .287-.23l4.201.6A.5.5 0 0 0 15 9.174v-.286a1 1 0 0 0-.579-.907l-4.436-2.06a.25.25 0 0 1-.143-.197c-.17-1.417-.44-2.84-.63-3.749A1.23 1.23 0 0 0 8 1a1.23 1.23 0 0 0-1.213.975 47 47 0 0 0-.629 3.749.25.25 0 0 1-.143.198l-4.436 2.06A1 1 0 0 0 1 8.887v.286a.5.5 0 0 0 .57.494z"/></svg>
